symbols/web/drive_folder_upload/materialsymbolsoutlined/drive_folder_upload_wght500fill1_24px.svg

<svg xmlns="http://www.w3.org/2000/svg" height="24" width="24"><path d="M11 17h2v-4.2l1.6 1.6L16 13l-4-4-4 4 1.4 1.4 1.6-1.6Zm-6.925 3.2q-.95 0-1.613-.662-.662-.663-.662-1.613V5.975q0-.95.662-1.613.663-.662 1.613-.662H9.9L12 5.8h7.925q.95 0 1.613.663.662.662.662 1.612v9.85q0 .95-.662 1.613-.663.662-1.613.662Z"/></svg>

<svg xmlns="http://www.w3.org/2000/svg" height="24" width="24"><path d="M11 17H13V12.8L14.6 14.4L16 13L12 9L8 13L9.4 14.4L11 12.8ZM4.075 20.2Q3.125 20.2 2.462 19.538Q1.8 18.875 1.8 17.925V5.975Q1.8 5.025 2.462 4.362Q3.125 3.7 4.075 3.7H9.9L12 5.8H19.925Q20.875 5.8 21.538 6.463Q22.2 7.125 22.2 8.075V17.925Q22.2 18.875 21.538 19.538Q20.875 20.2 19.925 20.2Z"/></svg>
